packages/calcite-ui-icons/icons/connection-to-connection-16.svg

<?xml version="1.0" encoding="UTF-8"?><svg id="icons" xmlns="http://www.w3.org/2000/svg" viewBox="0 0 16 16"><defs><style>.cls-1{fill:none;}.cls-1,.cls-2{stroke-width:0px;}</style></defs><rect class="cls-1" width="16" height="16"/><path class="cls-2" d="M13.5,6.09998c-1.15381,0-2.11591.81482-2.34619,1.90002h-5.30762c-.23029-1.08521-1.19238-1.90002-2.34619-1.90002-1.3255,0-2.40002,1.07452-2.40002,2.40002s1.07452,2.39996,2.40002,2.39996c1.15381,0,2.11591-.81482,2.34619-1.89996h5.30762c.23029,1.08514,1.19238,1.89996,2.34619,1.89996,1.3255,0,2.40002-1.07452,2.40002-2.39996s-1.07452-2.40002-2.40002-2.40002ZM3.5,10c-.82741,0-1.5-.67259-1.5-1.5s.67259-1.5,1.5-1.5,1.5.67259,1.5,1.5-.67259,1.5-1.5,1.5ZM13.5,10c-.82741,0-1.5-.67259-1.5-1.5s.67259-1.5,1.5-1.5,1.5.67259,1.5,1.5-.67259,1.5-1.5,1.5Z"/></svg>

<svg xmlns="http://www.w3.org/2000/svg" viewBox="0 0 16 16"><path stroke-width="0" fill="none" d="M0 0h16v16H0z"/><path d="M13.5 6.1A2.4 2.4 0 0 0 11.154 8H5.846a2.4 2.4 0 1 0 0 1h5.308A2.4 2.4 0 1 0 13.5 6.1zM3.5 10C2.673 10 2 9.327 2 8.5S2.673 7 3.5 7 5 7.673 5 8.5 4.327 10 3.5 10zm10 0c-.827 0-1.5-.673-1.5-1.5S12.673 7 13.5 7s1.5.673 1.5 1.5-.673 1.5-1.5 1.5z" stroke-width="0"/></svg>
